svg/water_off.svg

<svg xmlns="http://www.w3.org/2000/svg" viewBox="0 0 24 24"><path d="m20.84 22.73-4.55-4.55A5.96 5.96 0 0 1 12 20c-3.31 0-6-2.69-6-6 0-1.33.67-2.97 1.55-4.56L1.11 3l1.28-1.27 19.72 19.73zM18 14c0-4-6-10.75-6-10.75s-1.16 1.3-2.45 3.1l8.4 8.4c.05-.25.05-.5.05-.75"/></svg>

<?xml version="1.0" encoding="UTF-8"?><!DOCTYPE svg PUBLIC "-//W3C//DTD SVG 1.1//EN" "http://www.w3.org/Graphics/SVG/1.1/DTD/svg11.dtd"><svg xmlns="http://www.w3.org/2000/svg" xmlns:xlink="http://www.w3.org/1999/xlink" version="1.1" id="mdi-water-off" width="24" height="24" viewBox="0 0 24 24"><path d="M20.84 22.73L16.29 18.18C15.2 19.3 13.69 20 12 20C8.69 20 6 17.31 6 14C6 12.67 6.67 11.03 7.55 9.44L1.11 3L2.39 1.73L22.11 21.46L20.84 22.73M18 14C18 10 12 3.25 12 3.25S10.84 4.55 9.55 6.35L17.95 14.75C18 14.5 18 14.25 18 14Z" /></svg>
